src/assets/outline/Bookmark2.svg

<svg width="24" height="24" viewBox="0 0 24 24"  xmlns="http://www.w3.org/2000/svg">
<path d="M15.31 15.02C14.73 15.02 14.1 14.83 13.47 14.44L12.15 13.64C12.09 13.6 11.91 13.6 11.85 13.64L10.53 14.44C9.45 15.1 8.39 15.2 7.54 14.72C6.71 14.25 6.25 13.31 6.25 12.08V5.03C6.25 2.59 7.58 1.25 10 1.25H14C16.42 1.25 17.75 2.59 17.75 5.03V12.08C17.75 13.32 17.29 14.26 16.46 14.72C16.11 14.92 15.72 15.02 15.31 15.02ZM12 12.11C12.33 12.11 12.66 12.19 12.93 12.35L14.25 13.15C14.84 13.51 15.38 13.6 15.72 13.41C16.05 13.22 16.24 12.73 16.24 12.07V5.03C16.24 3.43 15.57 2.75 13.99 2.75H9.99C8.41 2.75 7.74 3.43 7.74 5.03V12.08C7.74 12.74 7.93 13.23 8.26 13.42C8.6 13.61 9.14 13.52 9.73 13.16L11.05 12.36C11.34 12.19 11.67 12.11 12 12.11Z" />
<path d="M15 22.75H9C3.57 22.75 1.25 20.41 1.25 14.93V11.9C1.25 7.24001 2.93 4.88001 6.69 4.25001C7.09 4.18001 7.48 4.46001 7.55 4.87001C7.62 5.28001 7.34 5.66001 6.93 5.73001C3.92 6.23001 2.74 7.96001 2.74 11.9V14.93C2.74 19.54 4.43 21.25 8.99 21.25H14.99C19.55 21.25 21.24 19.54 21.24 14.93V11.9C21.24 7.90001 20.02 6.17001 16.88 5.70001C16.47 5.64001 16.19 5.26001 16.25 4.85001C16.31 4.44001 16.69 4.16001 17.1 4.22001C21 4.80001 22.74 7.16001 22.74 11.9V14.93C22.75 20.41 20.43 22.75 15 22.75Z" />
</svg>

<?xml version="1.0" encoding="UTF-8"?>
<svg width="24" height="24" viewBox="0 0 24 24" xmlns="http://www.w3.org/2000/svg">
 <path d="m15.31 15.02c-0.58 0-1.21-0.19-1.84-0.58l-1.32-0.8c-0.06-0.04-0.24-0.04-0.3 0l-1.32 0.8c-1.08 0.66-2.14 0.76-2.99 0.28-0.83-0.47-1.29-1.41-1.29-2.64v-7.05c0-2.44 1.33-3.78 3.75-3.78h4c2.42 0 3.75 1.34 3.75 3.78v7.05c0 1.24-0.46 2.18-1.29 2.64-0.35 0.2-0.74 0.3-1.15 0.3zm-3.31-2.91c0.33 0 0.66 0.08 0.93 0.24l1.32 0.8c0.59 0.36 1.13 0.45 1.47 0.26 0.33-0.19 0.52-0.68 0.52-1.34v-7.04c0-1.6-0.67-2.28-2.25-2.28h-4c-1.58 0-2.25 0.68-2.25 2.28v7.05c0 0.66 0.19 1.15 0.52 1.34 0.34 0.19 0.88 0.1 1.47-0.26l1.32-0.8c0.29-0.17 0.62-0.25 0.95-0.25z"/>
 <path d="m15 22.75h-6c-5.43 0-7.75-2.34-7.75-7.82v-3.03c0-4.66 1.68-7.02 5.44-7.65 0.4-0.07 0.79 0.21 0.86 0.62s-0.21 0.79-0.62 0.86c-3.01 0.5-4.19 2.23-4.19 6.17v3.03c0 4.61 1.69 6.32 6.25 6.32h6c4.56 0 6.25-1.71 6.25-6.32v-3.03c0-4-1.22-5.73-4.36-6.2-0.41-0.06-0.69-0.44-0.63-0.85s0.44-0.69 0.85-0.63c3.9 0.58 5.64 2.94 5.64 7.68v3.03c0.01 5.48-2.31 7.82-7.74 7.82z"/>
</svg>
